X:108
T:108 The Marquis of Granby's March
C:Welch MS
I:abc2nwc
M:2/4
L:1/16
K:G
GA|B2G2B2G2|A2D2D2D2|c2A2c2A2|BcdB G2d2|e4f4|g2fe d2c2|B4A4|G6:|
d2|g3ag2f2|e2e2e2e2|a2b2a2g2|f6e2|g2f2e2d2|
c2Bc A2g2|f6e2|d6d2|g3ag2f2|e6d2|e2d2c2B2|A6|]

